src/assets/images/level-types/build.svg

<svg xmlns="http://www.w3.org/2000/svg" width="24" height="24" viewBox="0 0 24 24" fill="none">
  <path d="M1.46069 19.2832L1.46899 19.2753L1.47711 19.2672L9.385 11.3593L11.5058 13.4801L3.59289 21.393L3.59129 21.3946C3.45077 21.5358 3.2832 21.6471 3.09862 21.722C2.91498 21.7964 2.71826 21.8333 2.52013 21.8303C2.12012 21.8202 1.73922 21.6569 1.45623 21.3739C1.17672 21.0944 1.0139 20.7193 1.00025 20.3247C1.00489 20.1325 1.04673 19.9428 1.1235 19.7664L0.217106 19.3721L1.1235 19.7664C1.20262 19.5845 1.31726 19.4202 1.46069 19.2832Z" fill="white" stroke="white" stroke-width="2"/>
  <path d="M22.8129 9.94713L22.8304 9.9647L22.8489 9.98138C22.8956 10.0237 22.9332 10.0752 22.9592 10.1326C22.9824 10.184 22.996 10.239 22.9993 10.2951C22.9955 10.3515 22.9814 10.4068 22.9579 10.4584C22.9315 10.5161 22.8937 10.5678 22.8468 10.6105L22.8295 10.6263L22.8129 10.6429L19.2833 14.1725C19.1896 14.2661 19.0625 14.3187 18.93 14.3187C18.7977 14.3187 18.6708 14.2663 18.5771 14.1729C18.5771 14.1729 18.5771 14.1729 18.577 14.1729C18.5769 14.1727 18.5768 14.1726 18.5766 14.1725L17.5192 13.115C17.8917 12.7403 18.1008 12.2334 18.1008 11.705C18.1008 11.1766 17.8917 10.6697 17.5192 10.295L16.8108 10.9992L17.52 10.2958C17.334 10.1084 17.1128 9.95957 16.8691 9.85804C16.6254 9.7565 16.364 9.70422 16.1 9.70422C15.836 9.70422 15.5745 9.7565 15.3308 9.85804C15.0871 9.95957 14.8659 10.1084 14.68 10.2958L14.6796 10.2962L13.954 11.0285L11.8386 8.90564L12.4677 8.27648C12.6004 8.15461 12.7089 8.00867 12.7875 7.84625C12.8734 7.66885 12.9216 7.47561 12.9292 7.27867L12.93 7.25935V7.24002C12.93 6.81285 12.738 6.44509 12.5703 6.19021C12.3877 5.91293 12.1404 5.63102 11.8536 5.34945C11.2665 4.76329 10.5643 4.30523 9.79115 4.00424C9.03116 3.70835 8.21899 3.57056 7.40427 3.5991C8.66576 2.62242 10.2328 2.12486 11.8267 2.195C13.4214 2.26516 14.9394 2.89901 16.1104 3.98367L16.1309 4.00263L16.1524 4.02041C16.3948 4.22103 16.914 4.73822 18.3712 6.1955C18.4394 6.26441 18.486 6.35165 18.5055 6.4466C18.5247 6.54069 18.5165 6.63832 18.4818 6.72782C18.3081 7.15485 18.2871 7.6289 18.4228 8.06972C18.5594 8.51376 18.8463 8.89638 19.2343 9.1519C19.6224 9.40742 20.0872 9.51988 20.5491 9.46999C21.006 9.42064 21.4318 9.21549 21.755 8.88927L22.8129 9.94713ZM11.132 8.90208L11.1443 8.89696L11.132 8.90208L11.125 8.90502L11.132 8.90208Z" fill="white" stroke="white" stroke-width="2"/>
</svg>

<svg xmlns="http://www.w3.org/2000/svg" width="24" height="24" fill="none"><path fill="#fff" stroke="#fff" stroke-width="2" d="m1.46 19.283.009-.008.008-.008 7.908-7.908 2.12 2.121-7.912 7.913-.002.002a1.48 1.48 0 0 1-1.07.435A1.56 1.56 0 0 1 1 20.325a1.49 1.49 0 0 1 .123-.559l-.907-.394.907.394a1.49 1.49 0 0 1 .337-.483ZM22.813 9.947l.017.018.019.016a.46.46 0 0 1 .15.314.47.47 0 0 1-.152.316l-.018.015-.016.017-3.53 3.53a.5.5 0 0 1-.706 0l-1.058-1.058a2 2 0 0 0 0-2.82l-.708.704.709-.703a2.002 2.002 0 0 0-2.84 0l-.726.732-2.115-2.122.629-.63a1.43 1.43 0 0 0 .461-.997l.001-.02V7.24c0-.427-.192-.795-.36-1.05a5.32 5.32 0 0 0-.716-.84 6 6 0 0 0-4.45-1.75 6.74 6.74 0 0 1 8.706.384l.02.019.022.017c.243.201.762.718 2.22 2.176a.5.5 0 0 1 .11.532 2 2 0 0 0 3.273 2.161zM11.132 8.902l.012-.005-.012.005-.007.003z"/></svg>
